X:1
T:1. Sonate in C
T:1. Sonate in C
T:KV 279 (189d)
T:W. A. Mozart
T:© 1986 by Bärenreiter-Verlag, Kassel
T:© 1986 by Bärenreiter-Verlag, Kassel
T:© 1986 by Bärenreiter-Verlag, Kassel
T:© 1986 by Bärenreiter-Verlag, Kassel
T:© 1986 by Bärenreiter-Verlag, Kassel
T:© 1986 by Bärenreiter-Verlag, Kassel
T:© 1986 by Bärenreiter-Verlag, Kassel
T:© 1986 by Bärenreiter-Verlag, Kassel
T:© 1986 by Bärenreiter-Verlag, Kassel
T:© 1986 by Bärenreiter-Verlag, Kassel
T:© 1986 by Bärenreiter-Verlag, Kassel
T:© 1986 by Bärenreiter-Verlag, Kassel
T:© 1986 by Bärenreiter-Verlag, Kassel
T:© 1986 by Bärenreiter-Verlag, Kassel
T:© 1986 by Bärenreiter-Verlag, Kassel
T:© 1986 by Bärenreiter-Verlag, Kassel
T:© 1986 by Bärenreiter-Verlag, Kassel
C:Wolfgang Amadeus Mozart
Z:© 1986 by Bärenreiter-Verlag, Kassel
%%score { ( 1 4 ) | ( 2 3 ) }
L:1/8
Q:1/4=120
M:4/4
K:C
V:1 treble nm="Piano" snm="Pno."
V:4 treble 
V:2 bass 
V:3 bass 
V:1
"^Allegro"!f! !arpeggio![EGc]2 z B/A/ c/B/d/c/ e/d/f/e/ | %1
 !arpeggio![Adfa]2 g/f/e/d/ Tc/B/c/e/ d/f/B/d/ | [EGc]2 z B/A/ c/B/d/c/ e/d/f/e/ | %3
 !arpeggio![Adfa]2 g/f/e/d/ Tc/B/c/e/ d/f/B/d/ |!f! c{/d}(c/B/ c)!wedge!e (^c2 d) z | %5
 z{e} (d/^c/ d)!wedge!f (^d2 e) z | z (Tgc')_b (^g2 a) z |{ab} c'2 (b/a/g/f/) (^f2 g) z | %8
 z2 !wedge!G/!wedge!c/!wedge!e/!wedge!g/ z2 !wedge!A/!wedge!c/!wedge!f/!wedge!a/ | %9
{a} (gf/e/){e} de/f/ (f2 e) z | z2 (G/c/e/g/) z2 (A/c/f/a/) |{a} (gf/e/) dc/B/ c2!f! [G_Be]2- | %12
 [GBe]!p![Af] [FA]T[D=B] [Ec]2!f! [G_Be]2- | [GBe]!p![Af] [FA]T[D=B]!f! Tc/B/c/e/ Td/c/d/f/ | %14
 Te/d/e/g/ Tf/e/f/a/ g/c'/e'/b/ c'/g/a/f/ | (Ted) z2{/^c} d2{/c} d2 | %16
{Bd^g} b4- b/a/^g/f/ e/d/c/B/ | (d/c/B/c/ B/c/d/c/){/B} c2{/B} c2 |{Ac^f} a4- a/g/^f/e/ d/c/B/A/ | %19
 B2!p! !wedge!d!wedge!d e>^f{a} (gf/e/) | d z d/B/d/B/ e>^f{a} (gf/e/) | %21
 d !wedge!b/!wedge!a/ !wedge!g/!wedge!^f/!wedge!e/!wedge!d/ Tc a/g/ f/e/d/c/ | %22
 TB g/^f/ e/d/c/B/ TA e/d/ c/B/A/G/ | %23
 (^F/!f! d/b/a/ g/^f/e/d/) (d/^c/)!wedge!a/!wedge!g/ !wedge!f/!wedge!e/!wedge!d/!wedge!=c/ | %24
 c/B/!wedge!g/!wedge!^f/ !wedge!e/!wedge!d/!wedge!c/!wedge!B/!p! A2 (TB3/2A/4B/4) | %25
 c3 B A{/^G}AB{/^A}B |{Bd} c3 B{/G} A2 z2 |!f!{/B} c2 z2!p!{/d} e2 z2 | %28
!f!{/^G} A{/B}c{/^d}e!p!{/^g}a{/b} c'{/g}a{/d}e{/B}c |!f!{Bc} d2 (c/B/A/G/) TA4 | %30
 Gg/g/ g/d/B/G/ Aa/a/ a/^f/d/A/ | %31
 Bb/b/ b/g/d/B/ (^d/e/)!wedge!c/!wedge!A/ (B/c/)!wedge!A/!wedge!^F/ | %32
 G/(^f/g/f/ g/)!wedge!d/!wedge!B/!wedge!G/ !wedge!A/(^g/a/g/ a/)!wedge!f/!wedge!d/!wedge!A/ | %33
 !wedge!B/(^a/b/a/ b/)!wedge!g/!wedge!d/!wedge!B/ (^d/e/)!wedge!c/!wedge!A/ (B/c/)!wedge!A/!wedge!^F/ | %34
 !wedge!G/(g/b/)!wedge!a/ !wedge!g/!wedge!^f/!wedge!e/!wedge!d/ !wedge!c/!wedge!B/!wedge!A/!wedge!G/ !wedge!^F/!wedge!E/!wedge!D/!wedge!^C/ | %35
 C4- C/D/E/D/{^F} ED/C/ |!f! ([A,C]4 [G,B,]/) (G/^F/G/) !wedge!D/!p! (d/^c/d/) | %37
 !wedge!B/ (g/^f/g/) !wedge!d/ (b/a/b/) !wedge!g z z2 ::!f! [_B,DG]2 z G/D/ _B/G/d/B/ g/d/B/G/ | %39
 [DA^c]2 z A/E/ c/A/e/c/ a/e/c/A/ | [FAd]2 z A/F/ d/A/f/d/ a/f/d/A/ | %41
 [DGB]2 z G/D/ B/G/d/B/ g/d/B/G/ | [EGc]2 z G/E/ c/G/e/c/ g/e/c/G/ | %43
 [DF_B]2 z F/D/ B/F/d/B/ f/d/_b/a/ | ^g/b/f/b/ e/b/d/b/ c2 aT=g | ^f/a/_e/a/ d/a/c/a/ _B2 gT=f | %46
 e/g/d/g/ c/g/_B/g/ A2 z2 |!p! z a/b/ c'c' (c'2 g) z |!f! (Tf3/2e/4f/4) gf (^d2 e) z | %49
!p! z e/f/ gg (g2 d) z |!f! (Tc3/2B/4c/4) dc B/G/c/A/ d/B/e/c/ | [df]2 [fd']2 e/c/f/d/ g/e/a/f/ | %52
 [eg]2 [ec']2!p! B/G/c/A/ d/B/e/c/ | [df]2 [fd']2 e/c/f/d/ g/e/a/f/ | %54
 [eg]2 [ec']2 [db]/!f! g/^f/g/ c'/g/e/c/ | g/G/^F/G/ c/G/E/C/ G/G,/A,/B,/ C/D/E/F/ | %56
 G/A/B/c/ d/e/^f/g/ (^g/a/)!wedge!=f/!wedge!d/ (e/f/)!wedge!d/!wedge!c/ | %57
 !arpeggio![EGc]2 z c/A/ d/B/e/c/ f/d/g/e/ | !arpeggio![Adfa]2 g/f/e/d/ Tc/B/c/e/ d/f/B/d/ | %59
 !arpeggio![EGc]2 z c/A/ d/B/e/c/ f/d/g/e/ | !arpeggio![Adfa]2 g/f/e/d/ Tc/B/c/e/ d/f/B/d/ | %61
 c{d}(c/B/ c)!wedge!g (f2 e) z | z (ec'e) (g2 f) z |!p! z (fga) (_b2 ^c) z |!f! z (efg) (_a2 B) z | %65
 z c (g3 ^f) =f2- | (fe) T_e3/2d/4e/4 d2!f! [dfb]2- | [dfb]!p![ec'] [ce]T[A^f] [Bg]2!f! [DFB]2- | %68
 [DFB]!p![Ec] [CE]T[A,^F] [B,G]2 z2 |!f!{/^F} G2{/F} G2{EG^c} e4- | %70
 e/(G/A/^c/) e/g/a/^c'/ e'/d'/c'/_b/ a/g/f/e/ | (g/f/e/f/ e/f/g/f/){/E} F2{/E} F2 | %72
{DFB} d4- d/(F/G/B/) d/f/g/b/ | d'/c'/b/a/ g/f/e/d/ e2!p! !wedge!g!wedge!g | %74
 a>b{d'} (c'b/a/) g z g/e/g/e/ | %75
 a>b{d'} (c'b/a/) g !wedge!e'/!wedge!d'/ !wedge!c'/!wedge!b/!wedge!a/!wedge!g/ | %76
 Tf!f! d'/c'/ b/a/g/f/ Te c'/b/ a/g/f/e/ | Td a/g/ f/e/d/c/ B2!p! !wedge!G!wedge!G | %78
 A>B{d} (cB/A/) G z G/E/G/E/ | A>B{d} (cB/A/)!f! (G/c/e/d/ c/B/A/G/) | %80
 (G/^F/)!wedge!d/!wedge!c/ !wedge!B/!wedge!A/!wedge!G/!wedge!=F/ (F/E/)!wedge!c/!wedge!B/ !wedge!A/!wedge!G/!wedge!F/!wedge!E/ | %81
 D z (D/F/A/d/) z2 !wedge!E/!wedge!G/!wedge!B/!wedge!e/ | %82
 z2 (F/A/c/f/) z2 !wedge!d'/!wedge!b/!wedge!g/!wedge!f/ | %83
 z2[K:bass] (D/B,/G,/F,/)[K:treble] Tc/B/c/e/ Td/c/d/f/ | %84
 Te/d/e/g/ Tf/e/f/a/ (g/c'/e'/b/ c'/g/a/f/) | (Ted) z/ (g/f/e/)!p! d2 (Te3/2d/4e/4) | %86
 f3 e d{/^c}de{/^d}e |{eg} f3 e{/^c} d2 z2 |!f!{/^g} a2 z2!p!{/b} c'2 z2 | %89
!f!{/^g} a{/b}c'{/e}f!p!{/g}a{/^c} d{/e}f{/^G}A{/B}=c |!f!{Gce} g2 (f/e/d/c/) Td4 | %91
 cc'/c'/ c'/g/e/c/ dd'/d'/ d'/b/g/d/ | %92
 ee'/e'/ e'/c'/g/e/ (^g/a/)!wedge!f/!wedge!d/ (e/f/)!wedge!d/!wedge!B/ | %93
 (c/B/c/B/ c/)!wedge!G/!wedge!E/!wedge!C/ !wedge!D/(^c/d/c/ d/)!wedge!B/!wedge!G/!wedge!D/ | %94
 !wedge!E/(^d/e/d/ e/)!wedge!c/!wedge!G/!wedge!E/ (^G/A/)!wedge!F/!wedge!D/ (E/F/)!wedge!D/!wedge!B,/ | %95
 !wedge!C/(c/e/)!wedge!d/ !wedge!c/!wedge!B/!wedge!A/!wedge!G/ !wedge!F/!wedge!E/!wedge!D/!wedge!C/[I:staff +1] !wedge!B,/!wedge!A,/!wedge!G,/!wedge!^F,/ | %96
 F,4- F,/G,/A,/G,/{B,} A,G,/F,/ | %97
!f! ([D,F,]4 [C,E,]/)[I:staff -1] (C/B,/C/) !wedge!G,/!p! (G/^F/G/) | %98
 !wedge!E/ (c/B/c/) !wedge!G/ (e/d/e/) !wedge!c/!f! (c/B/c/) !wedge!e/!wedge!c/!wedge!g/!wedge!e/ | %99
 c'2 !arpeggio![egc']2 !arpeggio![egc']2 z2 :|[K:F][M:3/4]!f![Q:1/4=57]"^Andante" F/ | %101
 c2{/=B} c2{Bcd} c2 | (b2 B2)!p! z A | (3(GBG) (3(FAF) (3(EGE) |!f! (b2 B2)!p! z A | %105
 (9:6:9(GBG) (FAF) ((EGE)) |!f! F2 (6:4:6z!p! (EF) (GF[EG]) | %107
!f! (9:6:9([FA][EG][^D^F]) ([EG]!p!FG) (AG[Ac]) |!f! (3([GB][FA][E^G]) [FA]2 [_ec'-]2 | %109
 (9:6:9c'(^c'd') (=c'b)!wedge!a (ag)!wedge!f | (9:6:9[ce]!p!gg ggg ggg | %111
!f! (9:6:9z (=Bd)!p! (cBd) (cBd) |!f! (9:6:9z (ce)!p! (dce) (dce) | %113
!f! (9:6:9z (d=f)!p! (edf) (edf) | (9:6:9z!p! (ef ^fg^g a=bc') |!f! d2-!p! (6:4:6d(ag) Tfe!f!d | %116
 (3(g^ga) c2 T=B3/2A/4B/4 | c2 z2 z2 | %118
!f! (9:6:9z ([d=b][_ec'])!p! z ([ec'][db])!f! z ([=e^g][fa]) | %119
!p! (9:6:9z ([fa][eg])!f! z ([eg][df])!p! z ([df][ce]) | (9:6:9z ((ed)) z ((dc)) z ((c=B)) | %121
!f!{/f} e2{/e} d2{/d} c2 |!p! (3(ed) z z2 z2 |!f! (3(d_e) z z2 z2 |!p! (3(^de) z z2!f! (3(^fg) z | %125
 z2{cde} Td3 c/d/ | (3(ceg) Tg3/2^f/4g/4 (3z (=fd) | (3(ceG) TG3/2F/4G/4 (3z (F[F,=B,D]) | %128
[I:staff +1] ([F,=B,D]4 [E,G,C])[I:staff -1] z/ x/ ::!f! c/ | !wedge!g2 !wedge!g2 !wedge!g2 | %131
 (^f3/2g/4a/4 g2) z3/2!p! g/ | g2- (6:4:6g(.b.a .g.f.e) | d2 ^c2 z3/2!f! A/ | %134
 !wedge![^cb]2 !wedge![da]2 z!p! f | (9:6:9(ege) (dfd) (^cec) |!f! [e^c']2 [fd']2 z3/2!p! f/ | %137
 (9:6:9(ege) (dfd) (^cec) |!f! c2 T_e3 d/e/ | d2 (3z!p! (g^f) g2 | (3z ba b2 (3z d'^c' | %141
 (9:6:9(d'bg) (d'bg) (d'bg) |!f! f2- (6:4:6f!p!(ef gab) | %143
!f! (=b/c'/d'/c'/)!p!{c'} _ba/g/{g} fe/d/ |!f!{/d} c2{/=B} c2{Bcd} c2 | (b2 B2) z!p! A | %146
 (9:6:9(GBG) (FAF) (EGE) |!f! (b2 B2) z3/2!p! !wedge!B/ |!f! (b2 B2) z!p! A | (3(AG) z z2 z2 | %150
!f! (3(f=B) z z2 z2 | (9:6:9c!p!c'c' c'c'c' c'c'c' |!f! (9:6:9z (eg)!p! (feg) (feg) | %153
!f! (9:6:9z (fa)!p! (gfa) (gfa) |!f! (9:6:9z (g_b)!p! (agb) (agb) | (9:6:9z!p! (AB =Bc^c def) | %156
!f! G2-!p! (6:4:6G(dc) TBA!f!G | (3(c^cd) F2 TE3/2D/4E/4 | F2 z2 z2 | %159
!f! (9:6:9z ([Ge][_Af])!p! z ([Af][Ge])!f! z ([=A^c][Bd]) | %160
!p! (9:6:9z ([Bd][Ac])!f! z ([ac'][gb])!p! z ([gb][fa]) | (9:6:9z (ag) z (gf) z (fe) | %162
!f! [ac']2 [gb]2 [fa]2 |!p! (9:6:9z (AG) z (GF) z (FE) |!f!{/d} c2{/c} B2{/B} A2 | %165
!p! (3(AG) z z2 z2 |!f! (3(G_A) z z2 z2 |!p! (3(^GA) z z2!f! (3z (=bc') | z2{fga} Tg3 (f/g/) | %169
 f2 (6:4:6z!p! (EF) (GF)[GB] |!f! (9:6:9([FA][EG][^D^F]) ([EG]!p!FG) (AG[Ac]) | %171
!f! (3([GB][FA][E^G]) [FA]2 [_ec']2- | (9:6:9[ec'][db][ca]-!p! [ca][Bg][Af]- [Af][Bg][G=e] | %173
 (3[Af]!f!(ac') Tc'3/2=b/4c'/4 (3z (_ba) | (3(fac)!p! Tc3/2=B/4c/4 (3z (_B[B,EG]) | %175
 ([B,EG]4 [A,CF]) x/ z/ :|[K:C][M:2/4]!p![Q:1/4=120]"^Allegro" G | c4 | f4 | e/g/f/e/ a/f/d/c/ | %180
 B/c/d/B/ A/G/^F/G/ |!f! C4 | F4 | E/G/c/G/ ^F/G/=F/G/ | E/G/c/G/ ^F/G/=F/G/ | E/G/C/E/ D/F/B,/D/ | %186
 C2 z TG | c/G/e/c/ (g/^f/g/e/) | (e/d/^c/d/) (c/d/)(c/d/) | (g/a/b/)!wedge!^f/ (g/d/)(e/B/) | %190
 (d/c/B/c/) (B/c/)(B/c/) | (a/b/c'/)!wedge!a/ ^f/e/d/c/ | (c/B/^A/B/) (c/B/A/B/) | %193
 (A/c/e/)!wedge!d/ c/B/A/G/ | ^F z !wedge!^f!wedge!g | !wedge!a!wedge!b !wedge![ac']!wedge![gb] | %196
 [^fa]2 !wedge!^FTG | !wedge!ATB !wedge![Ac]!wedge![GB] | [^FA]2 z!p! d | .d.d.d.d | (g3 ^f) | %201
 .B.B.B.B | (e3 d) | .G.G.G.G | c2 z (B | e2) z (G | ^F2) z!pp! ([G_B] | %207
 [^FA]2)[K:bass] z ([G,_B,] | [^F,A,]2) z2 | z4 |[K:treble] z!f! (g/c'/ b/^f/e/a/) | %211
 (g/d/c/^f/ e/B/A/d/) | (c/G/^F/B/) (A/E/D/G/) | z [ce][Bd][^FA] | G2!p!{C} !wedge!c z | %215
{B,} !wedge!B z{A,} !wedge!A z |{G,} !wedge!G z!f!{C} .c.c |{B,} .B.B{A,} .A.A | %218
{D} !wedge!d z!p!{B} .c.c |{^A} .B.B{^G} .=A.A |{^c} !wedge!d z!f! (=c/d/e/c/) | %221
 (B/c/d/B/) (A/B/c/A/) | (G/g/b/a/ g/^f/e/d/) | (^c2 =c)!p!!wedge!B | !wedge!A z!f! e/c'/b/c'/ | %225
 d/b/a/b/ d/a/g/a/ | g/(G/B/A/ G/^F/E/D/) | (^C2 =C)!p!!wedge!B, | !wedge!A, z!f! E/c/B/c/ | %229
 D/B/A/B/ D/A/G/A/ | G/D/G/B/ d/c/A/^F/ | G/g/d/B/ d/c/A/^F/ | G2 z2 ::!p! d | .d.d.d.d | (g3 ^f) | %236
 .B.B.B.B | (e3 d) | .G.G.G.G | z (EA^G) | z4 | z ([ce][^dc'][eb]) | z4 | z ([Ac][Ba][cg]) | z4 | %245
 z ([FA][^Gf][Ae]) |!f! z !wedge!a/!wedge!^d/ (c'a) | z !wedge!^g/!wedge!e/ (bg) | %248
 z !wedge!a/!wedge!^d/ !wedge!c'!wedge!a | ^gc'/e/ b/e/a/e/ | ^g/e/c'/e/ b/e/a/e/ | %251
 ^g/e/a/e/ b/e/c'/e/ | b2{/^d} e2 | E2 !fermata!z!p! B, | E4 | A4 |!f! G_B/A/ G/F/E/D/ | %257
 ^CE/D/ C/A,/B,/C/ |!p! D4 | G4 |!f! FA/G/ F/E/D/C/ | B,D/C/ B,/G,/A,/B,/ | C4 | F4 |!p!{/E} c4 | %265
 f4 | e/g/f/e/ a/f/d/c/ | B/c/d/B/ A/G/^F/G/ |!f! z ([eg][df][ce]) | z ([Bd][Ac][GB]) | cedB | %271
 c/e/c/G/ ^F/G/=F/G/ | E/G/C/E/ D/F/B,/D/ | C2 z Tc | e/c/g/e/ (_b/a/b/g/) | %275
 (g/f/e/f/) (e/f/)(e/f/) | (f/c/a/f/) (c'/b/)(c'/a/) | (a/g/^f/g/) (f/g/)(f/g/) | %278
 c'/b/a/g/ f/e/d/c/ | (e/d/^c/d/) (e/d/c/d/) | (d/f/a/)!wedge!g/ f/e/d/c/ | B z !wedge!B!wedge!c | %282
 !wedge!d!wedge!e !wedge![df]!wedge![ce] | [Bd] z !wedge!B,TC | !wedge!DTE !wedge![DF]!wedge![CE] | %285
 [B,D]2 z!p! g | .g.g.g.g | (c'3 b) | .e.e.e.e | (a3 g) | .c.c.c.c | f2 z (e | a2) z (c | %293
 B2) z!pp! ([c_e] | [Bd]2) z ([C_E] | [B,D]2) z2 | z4 | z!f! (c/g/ f/B/A/d/) | %298
 (c/G/F/c/) (B/E/D/G/) | (F/C/B,/E/) (D/A,/G,/C/) | z [fa][eg][Bd] | c2!p!{F} !wedge!f z | %302
{E} !wedge!e z{D} !wedge!d z |{C} !wedge!c z!f!{F} .f.f |{E} .e.e{D} .d.d | %305
{G} !wedge!g z!p!{e} .f.f |{^d} .e.e{^c} .=d.d |{^f} g z!f! (=f/g/a/f/) | (e/f/g/e/) (d/e/f/d/) | %309
 c2 z!p! ([c_e] | [Bd]2) z!f! ([C_E] | [B,D]2) z2 | z2 z!p! g | .g.g.g.g | z (a^fg) | z (f^de) | %316
 z (dBc) | z4 |!f! z A2 G | z4 | z ^F2 E | z4 | z D2 C | z [ea][eg][Bd] | c/(c'/e'/d'/ c'/b/a/g/) | %325
!f! (^f2 =f)!p!!wedge!e | !wedge!d z!f! A/f/e/f/ | G/e/d/e/ G/d/c/d/ | c/(c/e/d/ c/B/A/G/) | %329
!f! (^F2 =F)!p!!wedge!E | !wedge!D z!f! A,/F/E/F/ | G,/E/D/E/ G,/D/C/D/ | C/G,/C/E/ G/F/D/B,/ | %333
 C/G/c/e/ g/f/d/B/ | c2 !arpeggio![dfb]2 | !arpeggio![cegc']2 z x :| %336
V:2
 C,/C/B,/C/ C, z z4 | [F,,F,]2 z2 z E,F,G, | C,/C/B,/C/ C, z z4 | [F,,F,]2 z2 z E,F,G, | %4
[K:treble]!mf! C/G/E/G/ C/G/E/G/ B,/G/D/G/ B,/G/D/G/ | B,/G/D/G/ B,/G/D/G/ C/G/E/G/ C/G/E/G/ | %6
 C/G/E/G/ C/G/E/G/ C/A/F/A/ C/A/F/A/ | C/A/F/A/ C/A/F/A/ C/G/E/G/ C/G/E/G/ | %8
[K:bass]!f! !wedge!E,/!wedge!G,/!wedge!C/!wedge!E/ z2 !wedge!F,/!wedge!A,/!wedge!C/!wedge!F/ z2 | %9
!mf! z [G,C][G,B,][G,D] (([^G,D]2 [A,C])) z |!f! (E,/G,/C/E/) z2 (F,/A,/C/F/) z2 | %11
!mf! z [G,C][G,B,][G,F] [CE]/!f! C/B,/C/ B,,/C,/B,,/C,/ | C,, z z2 (B,/C/B,/C/) (B,,/C,/B,,/C,/) | %13
 C,, z z2!mf! EG,B,G, | CG,DG, E2 z [F,D] | (CB,) z2 z4 | %16
 z/ F,,/^A,,/B,,/ E,/^G,/B,/E/ E,2 z [E,G,] | [A,,A,]2 z2 z4 | %18
 z/ D,,/^G,,/A,,/ D,/^F,/A,/D/ D,2 z [D,F,] | %19
[K:treble]!mf! G,/G/^F/G/!p! B,/G/F/G/ C/G/F/G/ C/G/F/G/ | B,/G/^F/G/ G,/G/F/G/ C/G/F/G/ C/G/F/G/ | %21
 B,2 z (^G A2) z (^F | G2) z (E C2) z (^C | D2) z (^G A2) z (^F | G2) z E!p! C/G/^F/G/ D/G/F/G/ | %25
 E/G/^F/G/ D/G/F/G/ C/G/F/G/ D/G/F/G/ | E/G/^F/G/ D/G/F/G/ z ([CE][B,^D][CE]) | %27
 z ([CE][B,^D][CE]) z ([CE][B,D][CE]) | z8 | %29
[K:bass]!mf! D,/B,/G,/B,/ D,/B,/G,/B,/ D,/C/^F,/C/ D,/C/F,/C/ | G,/D/A,/D/ G, z ^F,/D/A,/D/ F, z | %31
 G,/D/A,/D/ G, z [C,E,A,]2 [D,A,C]2 | !wedge![G,B,] z G,,/G,/^F,/G,/ F, z ^F,,/F,/E,/F,/ | %33
 G, z G,,/G,/^F,/G,/ !arpeggio![C,E,A,]2 !arpeggio![D,A,C]2 | [G,B,]2 z2 z4 | %35
 z2!p! [A,,A,]2 [^F,,^F,]2 [D,,D,]2 |!mf! G,,/G,/^F,/G,/ F,/G,/F,/G,/ G,,2 z2 | z8 :: %38
!mf! G,,/G,/^F,/G,/ G,, z z4 | G,,/G,/^F,/G,/ G,, z z4 | F,,/F,/E,/F,/ F,, z z4 | %41
 F,,/F,/E,/F,/ F,, z z4 | E,,/E,/D,/E,/ E,, z z4 | D,,/D,/^C,/D,/ D,, z z4 | %44
 [E,,E,]2 z ^G, A,/C/G,/C/ ^F,/C/_D,/C/ | D,2 z ^F, G,/_B,/=F,/B,/ E,/B,/D,/B,/ | %46
 C,2 z E, F,/[K:treble] C/_B,/A,/ B,/C/D/E/ |!p! F/c/A/c/ F/c/A/c/ E/c/G/c/ E/c/G/c/ | %48
!mf! D/B/G/B/ D/B/G/B/ C/c/G/c/ C/c/G/c/ |!p! C/G/E/G/ C/G/E/G/ B,/G/D/G/ B,/G/D/G/ | %50
!mf! A,/^F/C/F/ A,/F/C/F/ [G,G]2 z2 |[K:bass] G,,/G,/^F,/G,/ A,/G,/F,/G,/ G,,2 z2 | %52
 G,,/G,/^F,/G,/ A,/G,/F,/G,/!p! G,,2 z2 |[K:treble] G,/G/^F/G/ A/G/F/G/ G,2 z2 | %54
 G,/G/^F/G/ A/G/F/G/ G,2!mf! z2 |[K:bass] z/ G,/^F,/G,/ C/G,/E,/C,/ G,,2 z2 | z8 | %57
 C,/C/B,/C/ C, z z4 | [F,,F,]2 z2 z E,F,G, | C,/C/B,/C/ C, z z4 | [F,,F,]2 z2 z E,F,G, | %61
[K:treble] C/G/E/G/ C/G/E/G/ _B,/G/C/G/ B,/G/C/G/ | _B,/G/E/G/ B,/G/E/G/ A,/G/C/E/ A,/F/C/F/ | %63
!p! A,/F/C/F/ A,/F/C/F/ G,/E/_B,/E/ G,/E/B,/E/ | %64
!mf! G,/E/^C/E/ G,/E/C/E/[K:bass] F,/D/_A,/D/ F,/D/A,/D/ | %65
 E,/C/G,/C/ _E,/C/G,/C/ D,/C/A,/C/ B,,/G,/D,/G,/ | %66
 C,/C/G,/C/ ^F,/C/A,/C/ G,/!mf!(G,/F,/G,/) (^F,,/G,,/F,,/G,,/) | %67
 G,,,2!p! z2 (^F,/G,/F,/G,/)!mf! (^F,,/G,,/F,,/G,,/) | G,,,2!p! z2 z4 | %69
!mf! z4 z/ A,,,/^C,,/E,,/ A,,/^C,/E,/A,/ | A,,2 z2 [A,,A,]2 z [A,^C] | [D,D]2 z2 z4 | %72
 z/ G,,/B,,/D,/ G,/B,/D/G/ G,2 z2 | [G,,G,]2 z [G,B,][K:treble]!p! C/G/E/G/ C/G/E/G/ | %74
 C/A/F/A/ C/A/F/A/ C/G/E/G/ C/G/E/G/ | C/A/F/A/ C/A/F/A/ [CE]2 z (^c | d2)!mf! z (B c2) z (A | %77
 F2) z ^F G,/G/F/G/[K:bass]!p! E,/C/B,/C/ | F,/C/B,/C/ F,/C/B,/C/ E,/C/B,/C/ C,/C/B,/C/ | %79
 F,/C/A,/C/ F,/C/A,/C/ E,2 z!f! (^C | D2) z (B, C2) z A, | %81
!f! (F,,/A,,/D,/F,/) z2 !wedge!G,,/!wedge!B,,/!wedge!E,/!wedge!G,/ z2 | %82
 (A,,/C,/F,/A,/) z2 !wedge!B,,/!wedge!D,/!wedge!G,/!wedge!B,/ z2 | %83
[K:treble] (d/B/G/F/) z2[K:bass]!mf! EG,B,G, | CG,DG, E2 z [F,D] | %85
 (CB,) z2[K:treble]!p! F/c/B/c/ G/c/B/c/ | A/c/B/c/ G/c/B/c/ F/c/B/c/ G/c/B/c/ | %87
 A/c/B/c/ G/c/B/c/ z ([FA][E^G][FA]) | z ([FA][E^G][FA]) z ([FA][EG][FA]) | z8 | %90
[K:bass]!mf! G,/E/C/E/ G,/E/C/E/ G,/F/B,/F/ G,/F/B,/F/ |[K:treble] C/G/E/G/ C z B,/G/D/G/ B, z | %92
 C/G/E/G/ C z[K:bass] [F,A,D]2 [G,DF]2 | [CE] z C,,/C,/B,,/C,/ B,, z B,,/B,/A,/B,/ | %94
 C z C,,/C,/B,,/C,/ !arpeggio![F,,A,,D,]2 !arpeggio![G,,D,F,]2 | [C,E,]2 z2 z4 | %96
 z2!p! [D,,D,]2 [C,,B,,]2 [G,,,G,,]2 | C,,/C,/B,,/C,/ B,,/C,/B,,/C,/ C,,2 z2 | z8 | %99
 C,/C/E/C/ G,/C/E,/G,/ C,2 z2 :|[K:F][M:3/4]!mf! z/ | %101
!ped! (3(F,A,C)!ped-up!!ped! (3(F,A,C)!ped-up!!ped! (3(F,A,C)!ped-up! | %102
!ped! (3(E,G,C)!ped-up!!ped! (3(C,E,G,)!ped-up!!p!!ped! (3(F,A,C)!ped-up! | %103
!ped! (3(B,,D,G,)!ped-up!!ped! (3(C,F,A,)!ped-up!!ped! (3(C,G,B,)!ped-up! | %104
!mf!!ped! (9:6:9(D,F,B,)!ped-up!!ped! (E,G,C)!ped-up!!p!!ped! (F,A,C)!ped-up! | %105
!ped! (9:6:9(B,,D,G,)!ped-up!!ped! (C,F,A,)!ped-up!!ped! (C,G,B,)!ped-up! | %106
!mf!!ped! (3(A,CA,)!ped-up!!ped! F,2 z2!ped-up! | %107
!ped! [C,,C,]2!ped-up!!ped! z2!ped-up!!ped! z2!ped-up! | %108
!mf!!ped! [F,,F,]2!ped-up!!ped! (3z [_E,_E][D,D]!ped-up!!ped! (3[C,C][B,,B,][A,,A,]!ped-up! | %109
!ped! [B,,B,]2!ped-up!!ped! B,,2!ped-up!!ped! =B,,2!ped-up! | %110
!ped! C,2!ped-up!!ped! z2!ped-up!!ped! z2!ped-up! | %111
[K:treble]!ped! (9:6:9z (DF)!ped-up!!ped! (EDF)!ped-up!!ped! (EDF)!ped-up! | %112
!ped! (9:6:9z (EG)!ped-up!!ped! (FEG)!ped-up!!ped! (FEG)!ped-up! | %113
!ped! (9:6:9z (=B,D)!ped-up!!ped! (CB,D)!ped-up!!ped! (CB,D)!ped-up! | %114
!ped! C2!ped-up!!ped! z2!ped-up!!ped! z2!ped-up! | %115
[K:bass]!mf!!ped! (([^F,A,C]2!ped-up!!p!!ped! [G,=B,]2))!ped-up!!ped! z!ped-up!!mf! [=F,G,B,] | %116
!ped! E,F,!ped-up!!ped! (6:4:6G,CE!ped-up!!ped! G,DF!ped-up! | %117
!ped! (9:6:9z!p! (E,F,!ped-up!!ped! ^F,G,^G,!ped-up!!ped! A,=B,C)!ped-up! | %118
 [^F,,^F,]2 [G,,G,]2 [=B,,=B,]2 | [C,C]2 [^G,,^G,]2 [A,,A,]2 | %120
!ped! F,2!ped-up!!ped! G,4!ped-up!!ped!!ped-up! | %121
!ped! (9:6:9z ([=B,,,=B,,][C,,C,])!ped-up!!ped! z ([^C,,^C,][D,,D,])!ped-up!!ped! z ([^D,,^D,][E,,E,])!ped-up! | %122
!p!!ped! (9:6:9z [F,A,C][F,A,C]!ped-up!!ped! [F,A,C][F,A,C][F,A,C]!ped-up!!ped! [F,A,C][F,A,C][F,A,C]!ped-up! | %123
!mf!!ped! (9:6:9z [^F,A,C][F,A,C]!ped-up!!ped! [F,A,C][F,A,C][F,A,C]!ped-up!!ped! [F,A,C][F,A,C][F,A,C]!ped-up! | %124
!p!!ped! (9:6:9z [G,CE][G,CE]!ped-up!!ped! [G,CE][G,CE][G,CE]!ped-up!!mf!!ped! z [G,CE][G,CE]!ped-up! | %125
!ped! (9:6:9[^F,A,C][F,A,C][F,A,C]!ped-up!!ped! [G,C][G,C][G,C]!ped-up!!ped! [G,=B,][G,B,][G,B,]!ped-up! | %126
!ped! [C,C]2!ped-up!!ped! (3z (CE)!ped-up!!ped! (3(FD=B,)!ped-up! | %127
!ped! [C,C]2!ped-up!!ped! (3z (E,C,)!ped-up!!ped! G,,2!ped-up! | C,,4- C,, z/ x/ ::!mf! z/ | %130
[K:treble]!ped! (3(CEG)!ped-up!!ped! (3(CEG)!ped-up!!ped! (3(CEG)!ped-up! | %131
!ped! (9:6:9(=B,DG)!ped-up!!ped! (B,DG)!ped-up!!p!!ped! (B,DG)!ped-up! | %132
!p!!ped! (9:6:9(B,DG)!ped-up!!ped! (B,DG)!ped-up!!ped! (B,DG)!ped-up! | %133
!ped! (9:6:9(A,DF)!ped-up!!ped! (A,^CF)!ped-up!!ped! (A,CF)!ped-up! | %134
[K:bass]!mf!!ped! (9:6:9(G,^CE)!ped-up!!ped! (F,A,D)!ped-up!!p!!ped! (D,F,A,)!ped-up! | %135
!ped! (9:6:9(G,B,E)!ped-up!!ped! (A,DF)!ped-up!!ped! (A,^CE)!ped-up! | %136
!mf!!ped! (9:6:9(G,^CE)!ped-up!!ped! (F,A,D)!ped-up!!p!!ped! (D,F,A,)!ped-up! | %137
!ped! (9:6:9(G,B,E)!ped-up!!ped! (A,DF)!ped-up!!ped! (A,^CE)!ped-up! | %138
[K:treble]!mf!!ped! (9:6:9(A,_E^F)!ped-up!!ped! (A,CF)!ped-up!!ped! (A,CF)!ped-up! | %139
!ped! (3[B,DG]!p!(BA)!ped-up!!ped! B2!ped-up!!ped! (3z [Bd][A^c]!ped-up! | %140
!ped! [Bd]2!ped-up!!ped! (3z [Bg][A^f]!ped-up!!ped! [Bg]2!ped-up! |!ped! z6!ped-up! | %142
!mf!!ped! ([FA]2 [GB]2)!ped-up!!p!!ped! z2!ped-up! |!ped! z6!ped-up! | %144
!mf!!ped! (3(F,A,C)!ped-up!!ped! (3(G,B,C)!ped-up!!ped! (3(F,A,C)!ped-up! | %145
!ped! (9:6:9(E,G,C)!ped-up!!ped! (C,E,G,)!ped-up!!p!!ped! (F,A,C)!ped-up! | %146
!ped! (9:6:9(B,,D,G,)!ped-up!!ped! (C,F,A,)!ped-up!!ped! (C,G,B,)!ped-up! | %147
!mf!!ped! (9:6:9(_D,E,G,)!ped-up!!ped! (C,E,G,)!ped-up!!p!!ped! (D,E,G,)!ped-up! | %148
!mf!!ped! (9:6:9(C,E,G,)!ped-up!!ped! (^C,E,G,)!ped-up!!p!!ped! (D,F,A,)!ped-up! | %149
[K:treble]!ped! (9:6:9z [B,DF][B,DF]!ped-up!!ped! [B,DF][B,DF][B,DF]!ped-up!!ped! [B,DF][B,DF][B,DF]!ped-up! | %150
[K:bass]!mf!!ped! (9:6:9z [D,F,=B,][D,F,B,]!ped-up!!ped! [D,F,B,][D,F,B,][D,F,B,]!ped-up!!ped! [D,F,B,][D,F,B,][D,F,B,]!ped-up! | %151
!ped! [C,E,G,C]2!ped-up!!ped! z2!ped-up!!ped! z2!ped-up! | %152
[K:treble]!mf!!ped! (9:6:9z (GB)!ped-up!!p!!ped! (AGB)!ped-up!!ped! (AGB)!ped-up! | %153
!mf!!ped! (9:6:9z (Ac)!ped-up!!p!!ped! (BAc)!ped-up!!ped! (BAc)!ped-up! | %154
!mf! (9:6:9z (EG)!p! (FEG) (FEG) |!ped! F2!ped-up!!ped! z2!ped-up!!ped! z2!ped-up! | %156
!mf!!ped! ([=B,DF]2!ped-up!!p!!ped! [CE]2)!ped-up![K:bass]!ped! z!mf! [B,,C,E,]!ped-up! | %157
!ped! A,,B,,!ped-up!!ped! (6:4:6C,F,A,!ped-up!!ped! C,G,B,!ped-up! | %158
!ped! (9:6:9z!p! (A,,B,,!ped-up!!ped! =B,,C,^C,!ped-up!!ped! D,E,F,)!ped-up! | %159
!f! [=B,,,=B,,]2!p! [C,,C,]2!f! [E,,E,]2 |!p! [F,,F,]2!f! [^C,^C]2!p! [D,D]2 | %161
[K:treble]!ped! B,2!ped-up!!ped! C4!ped-up!!ped!!ped-up! | %162
[K:bass]!f! (9:6:9z ([E,E][F,F]) z ([^F,^F][G,G]) z ([^G,^G][A,A]) | %163
!p!!ped! B,,2!ped-up!!ped! C,4!ped-up!!ped!!ped-up! | %164
!f! (9:6:9z ([E,,E,][F,,F,]) z ([^F,,^F,][G,,G,]) z ([^G,,^G,][A,,A,]) | %165
[K:treble]!p!!ped! (9:6:9z [B,DF][B,DF]!ped-up!!ped! [B,DF][B,DF][B,DF]!ped-up!!ped! [B,DF][B,DF][B,DF]!ped-up! | %166
!mf!!ped! (9:6:9z [=B,DF][B,DF]!ped-up!!ped! [B,DF][B,DF][B,DF]!ped-up!!ped! [B,DF][B,DF][B,DF]!ped-up! | %167
!p!!ped! (9:6:9z [CF][CF]!ped-up!!ped! [CFA][CFA][CFA]!ped-up!!mf!!ped! z [CFA][CFA]!ped-up! | %168
!ped! (9:6:9[=B,FG][B,FG][B,FG]!ped-up!!ped! [B,FG][B,FG][B,FG]!ped-up!!ped! [CEB][CEB][CEB]!ped-up! | %169
!ped! (3[FA]CA,!ped-up![K:bass]!ped! [F,,F,]2!ped-up!!ped! z2!ped-up! | %170
!mf!!ped! [C,,C,]2!ped-up!!ped! z2!ped-up!!ped! z2!ped-up! | %171
!mf!!ped! [F,,F,]2!ped-up!!ped! (6:4:6z [_E,_E][D,D]!ped-up!!ped! [C,C][B,,B,][A,,A,]!ped-up! | %172
!ped! [B,,B,]2!ped-up!!p!!ped! [C,C]2!ped-up!!ped! [C,,C,]2!ped-up! | %173
!ped! [F,,F,]2!ped-up![K:treble]!mf!!ped! (6:4:6z (EA)!ped-up!!ped! [CB](GE)!ped-up! | %174
[K:bass]!ped! [F,F]2!ped-up!!p!!ped! (3z (A,F,)!ped-up!!ped! [C,,C,]2!ped-up! | F,,4- F,, x/ z/ :| %176
[K:C][M:2/4][K:treble]!p! z | z ([EG][DF][CE]) | z ([B,D][A,C][G,B,]) |!p! CcF^F | G2 G,2 | %181
[K:bass]!mf! z ([E,G,][D,F,][C,E,]) | z ([B,,D,][A,,C,][G,,B,,]) | C,E,D,B,, | C,E,D,B,, | %185
 C,E,F,G, | C,G,, C,,2 |[K:treble] [CEG]2 z2 | [B,DG]2 z2 | [B,DG]2 z2 | [A,C^F]2 z2 | [D^F]4 | %192
 [EG]2 [D^F]2 | [CE]3 [^CE] | !wedge!D/(d/^c/d/) (=c/d/B/d/) | (A/d/G/d/) (^F/d/G/d/) | %196
 D/[K:bass] (D/^C/D/) (=C/D/B,/D/) | (A,/D/G,/D/) (^F,/D/G,/D/) | D,2!p! z2 | z4 | %200
[K:treble] z (B^cd) | z4 | z (GAB) | z4 | z (E^FG) | z (C ^C2) | D(^c d2) | z (^C D2) | %208
[K:bass] z!f! ([^D,,^D,][E,,E,][^F,,^F,]) | [G,,G,]([B,,,B,,][C,,C,][D,,D,]) | %210
 [E,,E,][K:treble]!mf! (edc) | (BAG^F) | (EDCB,) |[K:bass] C,2 D,2 | %214
 G,,/G,/^F,/G,/!p! E,/G,/F,/G,/ | D,/G,/^F,/G,/ C,/G,/F,/G,/ | B,,/G,/^F,/G,/!mf! E,/G,/F,/G,/ | %217
 D,/G,/^F,/G,/ C,/G,/F,/G,/ | B,,/G,/^F,/G,/[K:treble]!p! E/G/^F/G/ | D/G/^F/G/ C/G/F/G/ | %220
 B,/G/^F/G/!mf! [CEA]2 | [DG]2 [D^F]2 | [G,G]2 z2 | ([EG]2 [^FA])!p!!wedge!G | %224
 !wedge![CE] z!mf! C/A/^G/A/ | D/G/^F/G/ D/F/E/F/ | G2 z2 |[K:bass] ([E,G,]2 [^F,A,])!p!!wedge!G, | %228
 !wedge![C,E,] z!mf! C,/A,/^G,/A,/ | D,/G,/^F,/G,/ D,/F,/E,/F,/ | G,2 [D,A,]2 | [G,B,]2 [D,A,C]2 | %232
 [G,B,]2 z2 ::!p! z | z4 |[K:treble] z ([B,D][^CB][DA]) | z4 | z ([G,B,][^A,G][B,^F]) | %238
 [B,F]2 [CE]2 | A,2 z E | .E.E.E.E | (A3 G) | .C.C.C.C | (F3 E) | .A,.A,.A,.A, | (D3 C) | %246
[K:bass]!mf! [F,F]2 z [F,,F,] | [E,,E,]2 z [E,E] | [F,F]2 z [F,,F,] | [E,,E,][K:treble] A^G[Ec] | %250
 BA^Gc | Bc^GA | [E^G]2[K:bass]{/^D} E2 | [E,,E,]2 !fermata!z2 |!p! z ([G,B,][^F,A,][E,G,]) | %255
 z ([^D,^F,][C,E,][B,,D,]) |!mf! [E,,E,]4 | [G,,G,]4 |!p! [F,,F,] ([F,A,][E,G,][D,F,]) | %259
 z ([^C,E,][B,,D,][A,,C,]) |!mf! [D,,D,]4 | [F,,F,]4 | [E,,E,] ([E,G,][D,F,][C,E,]) | %263
 z ([B,,D,][A,,C,][G,,B,,]) |[K:treble]!p! z ([EG][DF][CE]) | z ([B,D][A,C][G,B,]) | CcF^F | %267
 G2 G,2 |[K:bass]!f! [C,,C,]4 | [F,,F,]4 |!mf! E,/G,/C/G,/ ^F,/G,/=F,/G,/ | E,E,D,B,, | C,E,F,G, | %273
 C,G,, C,,2 |[K:treble] [CG_B]2 z2 | [CFA]2 z2 | [CFA]2 z2 | [CEG]2 z2 | [EG]2 z2 | [FA]2 z2 | %280
 [FA]3 [^FA] | !wedge!G,/(G/^F/G/) (=F/G/E/G/) | (D/G/C/G/) (B,/G/C/G/) | %283
 G,/[K:bass] (G,/^F,/G,/) (=F,/G,/E,/G,/) | (D,/G,/C,/G,/) (B,,/G,/C,/G,/) | G,,2!p! z2 | z4 | %287
[K:treble] z (e^fg) | z4 | z (cde) | z4 | z (ABc) | z (F ^F2) | G(^f g2) | z (^F G2) | %295
[K:bass] z!f! [^G,,^G,][A,,A,][B,,B,] | [C,C][E,,E,][F,,F,][G,,G,] | [A,,A,][K:treble]!mf! (AGF) | %298
 (EDCB,) |[K:bass] (A,G,F,E,) | F,2 G,2 | C,/C/B,/C/!p! A,/C/B,/C/ | G,/C/B,/C/ F,/C/B,/C/ | %303
 E,/C/B,/C/!mf! A,/C/B,/C/ | G,/C/B,/C/ F,/C/B,/C/ | E,/C/B,/C/[K:treble]!p! A/c/B/c/ | %306
 G/c/B/c/ G/c/B/c/ | E/c/B/c/!mf! [FAd]2 | [Gc]2 [GB]2 | z!p! (^f g2) |[K:bass] z!f! (^F, G,2) | %311
 z (^F,, G,,2) | z4 | z4 | z4 | z4 | z2 z!f! [G,,G,] | [G,,G,][G,,G,][G,,G,][G,,G,] | %318
 [C,C]3 [B,,B,] | [E,,E,][E,,E,][E,,E,][E,,E,] | [A,,A,]3 [G,,G,] | [C,,C,][C,,C,][C,,C,][C,,C,] | %322
 [F,,F,]3 [E,,E,] | [F,,F,]2 [G,,G,]2 | C,2 z2 |[K:treble] ([Ac]2 [Bd])!p!!wedge!c | %326
 !wedge![FA] z[K:bass]!mf! F,/D/^C/D/ | G,/C/B,/C/ G,/B,/A,/B,/ | [C,C]2 z2 | %329
 ([A,C]2 [B,D])!p!!wedge!C | !wedge![F,A,] z!mf! F,,/D,/^C,/D,/ | G,,/C,/B,,/C,/ G,,/B,,/A,,/B,,/ | %332
 C,2 [G,,D,]2 | [C,E,]2 [G,D]2 | [CE]2 [G,,G,]2 | [C,,C,]2 z x :| %336
V:3
 x8 | x8 | x8 | x8 |[K:treble] x8 | x8 | x8 | x8 |[K:bass] x8 | x8 | x8 | x8 | x8 | x8 | x8 | %15
 G,2 x6 | x8 | x8 | x8 |[K:treble] x8 | x8 | x8 | x8 | x8 | x8 | x8 | x8 | x8 | x8 |[K:bass] x8 | %30
 x8 | x8 | x8 | x8 | x8 | x8 | x8 | x8 :: x8 | x8 | x8 | x8 | x8 | x8 | x8 | x8 | %46
 x9/2[K:treble] x7/2 | x8 | x8 | x8 | x8 |[K:bass] x8 | x8 |[K:treble] x8 | x8 |[K:bass] x8 | x8 | %57
 x8 | x8 | x8 | x8 |[K:treble] x8 | x8 | x8 | x4[K:bass] x4 | x8 | x8 | x8 | x8 | x8 | x8 | x8 | %72
 x8 | x4[K:treble] x4 | x8 | x8 | x8 | x6[K:bass] x2 | x8 | x8 | x8 | x8 | x8 | %83
[K:treble] x4[K:bass] x4 | x8 | G,2 x2[K:treble] x4 | x8 | x8 | x8 | x8 |[K:bass] x8 | %91
[K:treble] x8 | x4[K:bass] x4 | x8 | x8 | x8 | x8 | x8 | x8 | x8 :|[K:F][M:3/4] x/ | x6 | x6 | x6 | %104
 x6 | x6 | x6 | x6 | x6 | x6 | x6 |[K:treble] x6 | x6 | x6 | x6 |[K:bass] x6 | C2 x4 | x6 | x6 | %119
 x6 | (F2 E2 D2) | x6 | x6 | x6 | x6 | x6 | x4 G,2 | x6 | x6 :: x/ |[K:treble] x6 | x6 | x6 | x6 | %134
[K:bass] x6 | x6 | x6 | x6 |[K:treble] x6 | x6 | x6 | x6 | C4 x2 | x6 | x6 | x6 | x6 | x6 | x6 | %149
[K:treble] x6 |[K:bass] x6 | x6 |[K:treble] x6 | x6 | x6 | x6 | x4[K:bass] x2 | F,2 x4 | x6 | x6 | %160
 x6 |[K:treble] (B2 A2 G2) |[K:bass] x6 | (B,2 A,2 G,2) | x6 |[K:treble] x6 | x6 | x6 | x6 | %169
 x2[K:bass] x4 | x6 | x6 | x6 | x2[K:treble] x4 |[K:bass] x6 | x6 :|[K:C][M:2/4][K:treble] x | x4 | %178
 x4 | x4 | x4 |[K:bass] x4 | x4 | x4 | x4 | x4 | x4 |[K:treble] x4 | x4 | x4 | x4 | x4 | x4 | x4 | %194
 x4 | x4 | x/[K:bass] x7/2 | x4 | x4 | x4 |[K:treble] x E2 D | x4 | x C2 B, | x4 | x A,2 G, | x4 | %206
 x4 | x4 |[K:bass] x4 | x4 | x[K:treble] x3 | x4 | x4 |[K:bass] x4 | x4 | x4 | x4 | x4 | %218
 x2[K:treble] x2 | x4 | x4 | x4 | x4 | x4 | x4 | x4 | x4 |[K:bass] x4 | x4 | x4 | x4 | x4 | x4 :: %233
 x | x4 |[K:treble] x4 | x4 | x4 | x4 | x4 | x4 | x4 | x4 | x4 | x4 | x4 |[K:bass] x4 | x4 | x4 | %249
 x[K:treble] x3 | E2 z E | E4 | x2[K:bass] x2 | x4 | x4 | x4 | x4 | x4 | x4 | x4 | x4 | x4 | x4 | %263
 x4 |[K:treble] x4 | x4 | x4 | x4 |[K:bass] x4 | x4 | x4 | x4 | x4 | x4 |[K:treble] x4 | x4 | x4 | %277
 x4 | x4 | x4 | x4 | x4 | x4 | x/[K:bass] x7/2 | x4 | x4 | x4 |[K:treble] x A2 G | x4 | x F2 E | %290
 x4 | x D2 C | x4 | x4 | x4 |[K:bass] x4 | x4 | x[K:treble] x3 | x4 |[K:bass] x4 | x4 | x4 | x4 | %303
 x4 | x4 | x2[K:treble] x2 | x4 | x4 | x4 | x4 |[K:bass] x4 | x4 | x4 | x4 | x4 | x4 | x4 | x4 | %318
 x4 | x4 | x4 | x4 | x4 | x4 | x4 |[K:treble] x4 | x2[K:bass] x2 | x4 | x4 | x4 | x4 | x4 | x4 | %333
 x4 | x4 | x4 :| %336
V:4
 x8 | x8 | x8 | x8 | x8 | x8 | x8 | x8 | x8 | x8 | x8 | x8 | x8 | x8 | x8 | x8 | x8 | x8 | x8 | %19
 x8 | x8 | x8 | x8 | x8 | x8 | x8 | x8 | x8 | x8 | x8 | x8 | x8 | x8 | x8 | x8 | x8 | x8 | x8 :: %38
 x8 | x8 | x8 | x8 | x8 | x8 | x8 | x8 | x8 | x8 | x8 | x8 | x8 | x8 | x8 | x8 | x8 | x8 | x8 | %57
 x8 | x8 | x8 | x8 | x8 | x8 | x8 | x8 | x8 | x8 | x8 | x8 | x8 | x8 | x8 | x8 | x8 | x8 | x8 | %76
 x8 | x8 | x8 | x8 | x8 | x8 | x8 | x2[K:bass] x2[K:treble] x4 | x8 | x8 | x8 | x8 | x8 | x8 | x8 | %91
 x8 | x8 | x8 | x8 | x8 | x8 | x8 | x8 | x8 :|[K:F][M:3/4] x/ | x6 | x6 | x6 | x6 | x6 | x6 | x6 | %108
 x6 | d6 | x6 |{^fga} g6 |{ag^f} g6 |{^fga} g6 | x6 | x6 | x6 | x6 | x6 | x6 | (A2 G2 F2) | %121
{/a} g2{/g} f2{/f} e2 | x6 | x6 | x6 | x6 | x6 | x6 | x6 :: x/ | x6 | x6 | x6 | x6 | x6 | x6 | x6 | %137
 x6 | x6 | x6 | x6 | x6 | x6 | x6 | x6 | x6 | x6 | x6 | x6 | x6 | x6 | x6 |{bc'd'} c'6 | %153
{d'c'=b} c'6 |{=bc'd'} c'6 | x6 | x6 | x6 | x6 | x6 | x6 | (d2 c2 B2) | x6 | (D2 C2 B,2) | %164
{/B} A2{/A} G2{/G} F2 | x6 | x6 | x6 | x6 | x6 | x6 | x6 | x6 | x6 | x6 | x6 :|[K:C][M:2/4] x | %177
 x4 | x4 | x4 | x4 | x4 | x4 | x4 | x4 | x4 | x4 | x4 | x4 | x4 | x4 | x4 | x4 | x4 | x4 | x4 | %196
 x4 | x4 | x4 | x4 | x4 | x4 | x4 | x4 | x4 | x4 | x4 | x2[K:bass] x2 | x4 | x4 |[K:treble] x4 | %211
 x4 | x4 | x4 | x4 | x4 | x4 | x4 | x4 | x4 | x4 | x4 | x4 | x4 | x4 | x4 | x4 | x4 | x4 | x4 | %230
 x4 | x4 | x4 :: x | x4 | x4 | x4 | x4 | x4 | (c3 B) | x4 | x4 | x4 | x4 | x4 | x4 | x4 | x4 | x4 | %249
 x4 | x4 | x4 | x4 | x4 | x4 | x4 | x4 | x4 | x4 | x4 | x4 | x4 | x4 | z2 z G | x4 | x4 | x4 | x4 | %268
 x4 | x4 | x4 | x4 | x4 | x4 | x4 | x4 | x4 | x4 | x4 | x4 | x4 | x4 | x4 | x4 | x4 | x4 | x4 | %287
 x4 | x4 | x4 | x4 | x4 | x4 | x4 | x4 | x4 | x4 | x4 | x4 | x4 | x4 | x4 | x4 | x4 | x4 | x4 | %306
 x4 | x4 | x4 | x4 | x4 | x4 | x4 | x4 | c'3 b | a3 g | f3 e | x4 | z (e^fg) | x4 | z (c^de) | x4 | %322
 z (ABc) | x4 | x4 | x4 | x4 | x4 | x4 | x4 | x4 | x4 | x4 | x4 | x4 | x4 :| %336

